icons/milestone-16.svg

<svg xmlns="http://www.w3.org/2000/svg" width="16" height="16" viewBox="0 0 16 16"><path fill-rule="evenodd" d="M7.75 0a.75.75 0 01.75.75V3h3.634c.414 0 .814.147 1.13.414l2.07 1.75a1.75 1.75 0 010 2.672l-2.07 1.75a1.75 1.75 0 01-1.13.414H8.5v5.25a.75.75 0 11-1.5 0V10H2.75A1.75 1.75 0 011 8.25v-3.5C1 3.784 1.784 3 2.75 3H7V.75A.75.75 0 017.75 0zm0 8.5h4.384a.25.25 0 00.161-.06l2.07-1.75a.25.25 0 000-.38l-2.07-1.75a.25.25 0 00-.161-.06H2.75a.25.25 0 00-.25.25v3.5c0 .138.112.25.25.25h5z"/></svg>

<svg xmlns="http://www.w3.org/2000/svg" width="16" height="16" viewBox="0 0 16 16">
  <defs/>
  <path d="M7.75,0 C8.164,0 8.5,0.336 8.5,0.75 L8.5,3 L12.134,3 C12.548,3 12.948,3.147 13.264,3.414 L15.334,5.164 C15.727,5.497 15.954,5.985 15.954,6.5 C15.954,7.015 15.727,7.503 15.334,7.836 L13.264,9.586 C12.948,9.853 12.548,10 12.134,10 L8.5,10 L8.5,15.25 C8.5,15.664 8.164,16 7.75,16 C7.336,16 7,15.664 7,15.25 L7,10 L2.75,10 C1.784,10 1,9.216 1,8.25 L1,4.75 C1,3.784 1.784,3 2.75,3 L7,3 L7,0.75 C7,0.336 7.336,0 7.75,0 Z M12.134,8.5 C12.193,8.5 12.25,8.478 12.295,8.44 L14.365,6.69 C14.421,6.643 14.453,6.573 14.453,6.5 C14.453,6.427 14.421,6.357 14.365,6.31 L12.295,4.56 C12.25,4.522 12.193,4.5 12.134,4.5 L2.75,4.5 C2.612,4.5 2.5,4.612 2.5,4.75 L2.5,8.25 C2.5,8.388 2.612,8.5 2.75,8.5 L12.134,8.5 Z"/>
</svg>
